X:158
T:Pleasant Valley Clog
R:Clog
C:Bruce Osborne  --  Apr. 1996
Z:abc by bosborne@kos.net
M:2/4
L:1/8
K:E
(3B,CD|E>D E>G|c>B (3EFG|c>B B>E|G2 (3EFG|\
F>E F>G|A>F D>F|E>D E>F|G2 (3B,CD|\
E>D E>G|c>B (3EFG|c>B B>E|G2 (3EFG|\
F>E F>G|A>F D>F|(3EFE (3DEF|E2||\
G>A|B>E B,>E|(3GFG E>G|c>B B>E|G2 (3EFG|\
F>D B,>D|(3FEF B,>F|c>B B>A|B2 G>A|\
B>E B,>E|(3GFG E>G|c>B B>E|G2 (3EFG|\
F>D B,>D|(3FEF B,>F|(3EFE (3DEF|E2||
